assets/icons/qvision/alarm_add.svg

<svg width="24" height="24" viewBox="0 0 24 24" fill="none" xmlns="http://www.w3.org/2000/svg">
<g clip-path="url(#clip0_147_3854)">
<path d="M7.88 3.38999L6.6 1.85999L2 5.70999L3.29 7.23998L7.88 3.38999ZM22 5.71999L17.4 1.85999L16.11 3.38999L20.71 7.24999L22 5.71999ZM12 3.99999C7.03 3.99999 3 8.02999 3 13C3 17.97 7.02 22 12 22C16.97 22 21 17.97 21 13C21 8.02999 16.97 3.99999 12 3.99999ZM12 20C8.13 20 5 16.87 5 13C5 9.12999 8.13 5.99999 12 5.99999C15.87 5.99999 19 9.12999 19 13C19 16.87 15.87 20 12 20ZM13 8.99999H11V12H8V14H11V17H13V14H16V12H13V8.99999Z" fill="#323232"/>
</g>
<defs>
<clipPath id="clip0_147_3854">
<rect width="24" height="24" fill="white"/>
</clipPath>
</defs>
</svg>

<svg xmlns="http://www.w3.org/2000/svg" height="24" viewBox="0 0 24 24" width="24"><path d="M0 0h24v24H0z" fill="none"/><path d="M7.88 3.39L6.6 1.86 2 5.71l1.29 1.53 4.59-3.85zM22 5.72l-4.6-3.86-1.29 1.53 4.6 3.86L22 5.72zM12 4c-4.97 0-9 4.03-9 9s4.02 9 9 9c4.97 0 9-4.03 9-9s-4.03-9-9-9zm0 16c-3.87 0-7-3.13-7-7s3.13-7 7-7 7 3.13 7 7-3.13 7-7 7zm1-11h-2v3H8v2h3v3h2v-3h3v-2h-3V9z"/></svg>
